packages/icons/src/mobile-exclamation.svg

<svg viewBox="0 0 32 32" xmlns="http://www.w3.org/2000/svg">
	<path
    d="M16 11C16.5523 11 17 11.4477 17 12V19C17 19.5523 16.5523 20 16 20C15.4478 20 15 19.5523 15 19V12C15 11.4477 15.4478 11 16 11Z"
  />
	<path
    d="M16 21C16.5523 21 17 21.4477 17 22C17 22.5523 16.5523 23 16 23C15.4478 23 15 22.5523 15 22C15 21.4477 15.4478 21 16 21Z"
  />
	<path
    d="M10 2.66675H22C23.4728 2.66675 24.6667 3.86066 24.6667 5.33341V26.6667C24.6667 28.1395 23.4728 29.3334 22 29.3334H10C8.52728 29.3334 7.33337 28.1395 7.33337 26.6667V5.33342C7.33337 3.86066 8.52728 2.66675 10 2.66675ZM10 4.66675C9.63185 4.66675 9.33337 4.96522 9.33337 5.33342V26.6667C9.33337 27.0349 9.63185 27.3334 10 27.3334H22C22.3682 27.3334 22.6667 27.0349 22.6667 26.6667V5.33341C22.6667 4.96522 22.3682 4.66675 22 4.66675H18.9909C18.9079 5.4167 18.2721 6 17.5 6H14.5C13.728 6 13.0921 5.4167 13.0092 4.66675H10Z"
  />
</svg>

<svg xmlns="http://www.w3.org/2000/svg" viewBox="0 0 32 32">
<path
    fill-rule='evenodd'
    clip-rule='evenodd'
    d="M10,2.7c-1.5,0-2.7,1.2-2.7,2.7v21.3c0,1.5,1.2,2.7,2.7,2.7h12c1.5,0,2.7-1.2,2.7-2.7V5.3
	c0-1.5-1.2-2.7-2.7-2.7H10z M10,4.7C9.6,4.7,9.3,5,9.3,5.3v21.3c0,0.4,0.3,0.7,0.7,0.7h12c0.4,0,0.7-0.3,0.7-0.7V5.3
	c0-0.4-0.3-0.7-0.7-0.7h-3C18.9,5.4,18.3,6,17.5,6h-3c-0.8,0-1.4-0.6-1.5-1.3H10z M16,11c0.6,0,1,0.4,1,1v7c0,0.6-0.4,1-1,1
	c-0.6,0-1-0.4-1-1v-7C15,11.4,15.4,11,16,11z M16,21c0.6,0,1,0.4,1,1s-0.4,1-1,1c-0.6,0-1-0.4-1-1S15.4,21,16,21z"
  />
</svg>
